src/assets/images/logo-estime.svg

<?xml version="1.0" encoding="UTF-8"?>
<svg width="99px" height="40px" viewBox="0 0 99 40" version="1.1" xmlns="http://www.w3.org/2000/svg" xmlns:xlink="http://www.w3.org/1999/xlink">
    <!-- Generator: Sketch 51.3 (57544) - http://www.bohemiancoding.com/sketch -->
    <title>logo-estime-test</title>
    <desc>Created with Sketch.</desc>
    <defs>
        <polygon id="path-1" points="9.1954023e-05 0.44137931 39.0984828 0.44137931 39.0984828 39.5402299 9.1954023e-05 39.5402299"></polygon>
        <polygon id="path-3" points="0 39.5586207 98.4850575 39.5586207 98.4850575 0.459770115 0 0.459770115"></polygon>
    </defs>
    <g id="Parcours-entier" stroke="none" stroke-width="1" fill="none" fill-rule="evenodd">
        <g id="Desktop" transform="translate(-82.000000, -41.000000)">
            <g id="logo-estime-test" transform="translate(82.000000, 41.000000)">
                <g id="Group-32">
                    <g id="Group-3" transform="translate(0.000000, 0.018391)">
                        <mask id="mask-2" fill="white">
                            <use xlink:href="#path-1"></use>
                        </mask>
                        <g id="Clip-2"></g>
                        <path d="M39.0984828,19.9906667 C39.0984828,30.787908 30.3462989,39.5405517 19.5490575,39.5405517 C8.7531954,39.5405517 9.1954023e-05,30.787908 9.1954023e-05,19.9906667 C9.1954023e-05,9.19388506 8.7531954,0.441241379 19.5490575,0.441241379 C30.3462989,0.441241379 39.0984828,9.19388506 39.0984828,19.9906667" id="Fill-1" fill="#23333C" mask="url(#mask-2)"></path>
                    </g>
                    <polygon id="Fill-4" fill="#21313B" points="45.6995862 5.22004598 52.7984368 5.22004598 52.1464828 7.28809195 48.2526897 7.28809195 48.2526897 10.214069 52.1464828 10.214069 52.1464828 12.2632644 48.2526897 12.2632644 48.2526897 15.4315402 52.7795862 15.4315402 52.7795862 17.4995862 45.6995862 17.4995862"></polygon>
                    <path d="M54.9969195,14.9654713 C55.7049655,15.4316782 56.6176092,15.7296092 57.4750805,15.7296092 C58.3137011,15.7296092 58.910023,15.5245517 58.910023,14.9654713 C58.910023,13.6238621 54.7550805,14.1452414 54.7550805,11.2013333 C54.7550805,9.58018391 56.0966897,8.46202299 58.2203678,8.46202299 C59.2447356,8.46202299 60.1771494,8.63075862 60.9224368,8.90937931 L60.9224368,11.0155862 C60.1394483,10.6794943 59.2824368,10.4192644 58.3325517,10.4192644 C57.6051954,10.4192644 57.213931,10.6238621 57.213931,11.0707586 C57.213931,12.2822529 61.3693333,11.7976552 61.3693333,14.9093793 C61.3693333,16.9034023 59.5992184,17.6854713 57.6801379,17.6854713 C56.2268046,17.6854713 55.0157701,17.2758161 54.2327816,16.7912184 L54.9969195,14.9654713 Z" id="Fill-6" fill="#21313B"></path>
                    <path d="M63.8291034,15.2074943 L63.8291034,10.6424368 L62.2074943,10.6424368 L62.2074943,8.68565517 L63.8291034,8.68565517 L63.8291034,6.6176092 L66.3633563,5.89117241 L66.3633563,8.68565517 L69.0272644,8.68565517 L68.4502529,10.6424368 L66.3633563,10.6424368 L66.3633563,14.573931 C66.3633563,15.3937011 66.624046,15.6737011 67.2015172,15.6737011 C67.6856552,15.6737011 68.1697931,15.5054253 68.5058851,15.2824368 L69.2323218,16.9964598 C68.579908,17.4433563 67.4245057,17.6856552 66.5491034,17.6856552 C64.8727816,17.6856552 63.8291034,16.7541609 63.8291034,15.2074943" id="Fill-8" fill="#21313B"></path>
                    <mask id="mask-4" fill="white">
                        <use xlink:href="#path-3"></use>
                    </mask>
                    <g id="Clip-11"></g>
                    <path d="M70.4432184,17.4997701 L72.9586207,17.4997701 L72.9586207,8.68597701 L70.4432184,8.68597701 L70.4432184,17.4997701 Z M70.182069,5.96551724 C70.182069,5.16413793 70.8344828,4.51218391 71.7103448,4.51218391 C72.5668966,4.51218391 73.2193103,5.12689655 73.2193103,5.96551724 C73.2193103,6.78574713 72.5668966,7.45609195 71.7103448,7.45609195 C70.8344828,7.45609195 70.182069,6.80367816 70.182069,5.96551724 Z" id="Fill-10" fill="#21313B" mask="url(#mask-4)"></path>
                    <path d="M74.952046,8.68583908 L77.0573333,8.68583908 L77.300092,9.63572414 C78.1566437,8.98377011 79.1630805,8.4623908 80.2256092,8.4623908 C81.3249195,8.4623908 82.1446897,8.9285977 82.6104368,9.76721839 C83.672046,8.89043678 84.7902069,8.4623908 85.7410115,8.4623908 C87.3244598,8.4623908 88.7589425,9.28216092 88.7589425,11.6858391 L88.7589425,17.4996322 L86.244,17.4996322 L86.244,12.3561839 C86.244,11.4067586 86.0757241,10.6426207 84.9957241,10.6426207 C84.3617011,10.6426207 83.672046,10.9217011 83.1134253,11.3690575 L83.1134253,17.4996322 L80.5975632,17.4996322 L80.5975632,12.3938851 C80.5975632,11.4435402 80.4485977,10.6426207 79.3676782,10.6426207 C78.7350345,10.6426207 78.0265287,10.9217011 77.4674483,11.3690575 L77.4674483,17.4996322 L74.952046,17.4996322 L74.952046,8.68583908 Z" id="Fill-12" fill="#21313B" mask="url(#mask-4)"></path>
                    <path d="M95.9505747,12.1143908 C95.9317241,11.2389885 95.4843678,10.3631264 94.385977,10.3631264 C93.3795402,10.3631264 92.8388506,11.2017471 92.8388506,12.1143908 L95.9505747,12.1143908 Z M90.3422989,13.158069 C90.3422989,10.4937011 91.7767816,8.46243678 94.4232184,8.46243678 C96.9942529,8.46243678 98.4848276,10.2693333 98.4848276,13.2325517 L98.4848276,13.810023 L92.876092,13.810023 C92.9137931,15.0394483 93.8636782,15.7295632 95.2052874,15.7295632 C96.1183908,15.7295632 96.808046,15.5056552 97.46,15.1332414 L98.1864368,16.8472644 C97.1993103,17.4435862 96.0995402,17.6854253 94.9822989,17.6854253 C91.6278161,17.6854253 90.3422989,15.4684138 90.3422989,13.158069 Z" id="Fill-13" fill="#21313B" mask="url(#mask-4)"></path>
                    <polygon id="Fill-14" fill="#FF810B" mask="url(#mask-4)" points="45.697931 33.7209195 93.537931 33.7209195 93.537931 22.7517241 45.697931 22.7517241"></polygon>
                    <path d="M50.9883218,27.7344368 C51.2977471,27.7344368 51.5294713,27.6824828 51.7014253,27.5882299 C52.0453333,27.424092 52.2085517,27.0889195 52.2085517,26.6337471 C52.2085517,26.2296092 52.0531494,25.8944368 51.735908,25.705931 C51.5547586,25.6029425 51.3142989,25.5427126 50.9791264,25.5427126 L50.643954,25.5427126 L50.643954,27.7344368 L50.9883218,27.7344368 Z M49.7418851,24.8038621 L51.0048736,24.8038621 C51.5469425,24.8038621 51.9418851,24.8806437 52.2687816,25.0525977 C52.8274023,25.3445517 53.1538391,25.8857011 53.1538391,26.6337471 C53.1538391,27.2953563 52.8701609,27.9491494 52.1133793,28.2668506 C51.8136092,28.3955862 51.4347586,28.4732874 50.928092,28.4732874 L50.643954,28.4732874 L50.643954,30.4668506 L49.7418851,30.4668506 L49.7418851,24.8038621 Z" id="Fill-15" fill="#FFFFFF" mask="url(#mask-4)"></path>
                    <path d="M56.8431724,28.4213793 C56.8431724,27.6135632 56.4652414,27.0287356 55.7861609,27.0287356 C55.1075402,27.0287356 54.7204138,27.6135632 54.7204138,28.4213793 C54.7204138,29.237931 55.1075402,29.8227586 55.7861609,29.8227586 C56.4652414,29.8227586 56.8431724,29.237931 56.8431724,28.4213793 Z M55.3990345,24.6397701 L56.1558161,24.6397701 L57.0151264,25.9032184 L56.2932874,25.9032184 L55.7783448,25.163908 L55.2702989,25.9032184 L54.5484598,25.9032184 L55.3990345,24.6397701 Z M53.8008736,28.4213793 C53.8008736,27.2094253 54.5921379,26.2990805 55.7861609,26.2990805 C56.9723678,26.2990805 57.7636322,27.2094253 57.7636322,28.4213793 C57.7636322,29.6337931 56.9723678,30.5533333 55.7861609,30.5533333 C54.599954,30.5533333 53.8008736,29.6337931 53.8008736,28.4213793 Z" id="Fill-16" fill="#FFFFFF" mask="url(#mask-4)"></path>
                    <path d="M58.6342069,24.3822529 L59.5275402,24.3822529 L59.5275402,29.3583448 C59.5275402,29.6594943 59.6305287,29.7450115 59.8286897,29.7450115 C59.8889195,29.7450115 60.0089195,29.7197241 60.0861609,29.693977 L60.2668506,30.3891494 C60.0516782,30.4843218 59.7854713,30.5270805 59.5702989,30.5270805 C58.9431724,30.5270805 58.6342069,30.2001839 58.6342069,29.6075402 L58.6342069,24.3822529 Z" id="Fill-17" fill="#FFFFFF" mask="url(#mask-4)"></path>
                    <path d="M63.2242759,28.0177471 C63.2072644,27.5018851 62.9585287,26.9942989 62.3824368,26.9942989 C61.8403678,26.9942989 61.5231264,27.4678621 61.5134713,28.0177471 L63.2242759,28.0177471 Z M60.6114023,28.4214253 C60.6114023,27.1924598 61.2904828,26.2991264 62.3907126,26.2991264 C63.4992184,26.2991264 64.1350805,27.123954 64.1350805,28.4388966 L64.1350805,28.654069 L61.5231264,28.654069 C61.5396782,29.3492414 61.9953103,29.8393563 62.7346207,29.8393563 C63.1387586,29.8393563 63.4647356,29.728092 63.7576092,29.5644138 L64.0238161,30.1745287 C63.6288736,30.4329195 63.1212874,30.5533793 62.639908,30.5533793 C61.221977,30.5533793 60.6114023,29.5474023 60.6114023,28.4214253 Z" id="Fill-18" fill="#FFFFFF" mask="url(#mask-4)"></path>
                    <path d="M69.0203678,28.0177471 C69.0033563,27.5018851 68.7546207,26.9942989 68.1785287,26.9942989 C67.6364598,26.9942989 67.3192184,27.4678621 67.3095632,28.0177471 L69.0203678,28.0177471 Z M66.4074943,28.4214253 C66.4074943,27.1924598 67.0865747,26.2991264 68.1868046,26.2991264 C69.2953103,26.2991264 69.9311724,27.123954 69.9311724,28.4388966 L69.9311724,28.654069 L67.3192184,28.654069 C67.3357701,29.3492414 67.7914023,29.8393563 68.5307126,29.8393563 C68.9348506,29.8393563 69.2608276,29.728092 69.5537011,29.5644138 L69.819908,30.1745287 C69.4249655,30.4329195 68.9173793,30.5533793 68.436,30.5533793 C67.018069,30.5533793 66.4074943,29.5474023 66.4074943,28.4214253 Z" id="Fill-19" fill="#FFFFFF" mask="url(#mask-4)"></path>
                    <path d="M70.7763678,26.4018391 L71.5234943,26.4018391 L71.6182069,26.8832184 C72.0310805,26.548046 72.4949885,26.2988506 73.0025747,26.2988506 C73.4834943,26.2988506 73.8701609,26.5222989 74.0683218,26.9517241 C74.5584368,26.5305747 75.0733793,26.2988506 75.5464828,26.2988506 C76.2425747,26.2988506 76.8434943,26.7025287 76.8434943,27.7595402 L76.8434943,30.4671264 L75.9501609,30.4671264 L75.9501609,28.0091954 C75.9501609,27.4933333 75.8471724,27.0809195 75.3055632,27.0809195 C74.9441839,27.0809195 74.5749885,27.2873563 74.248092,27.5535632 C74.2568276,27.6045977 74.2568276,27.6744828 74.2568276,27.7425287 L74.2568276,30.4671264 L73.3634943,30.4671264 L73.3634943,28.017931 C73.3634943,27.502069 73.2595862,27.0809195 72.7271724,27.0809195 C72.3575172,27.0809195 71.9883218,27.2873563 71.6697011,27.5535632 L71.6697011,30.4671264 L70.7763678,30.4671264 L70.7763678,26.4018391 Z" id="Fill-20" fill="#FFFFFF" mask="url(#mask-4)"></path>
                    <path d="M79.3409655,29.8051954 C80.1483218,29.8051954 80.569931,29.2553103 80.569931,28.4130115 C80.569931,27.476 80.054069,27.0461149 79.2890115,27.0461149 C79.0908506,27.0461149 78.9193563,27.0723218 78.7474023,27.1238161 L78.7474023,29.6764598 C78.9363678,29.7624368 79.1083218,29.8051954 79.3409655,29.8051954 Z M77.8536092,26.5564598 C78.2917701,26.401977 78.7988966,26.2989885 79.3234943,26.2989885 C80.7244138,26.2989885 81.4894713,27.1063448 81.4894713,28.4212874 C81.4894713,29.693931 80.637977,30.5532414 79.4002759,30.5532414 C79.1685517,30.5532414 78.9455632,30.5095632 78.7474023,30.4415172 L78.7474023,32.5045057 L77.8536092,32.5045057 L77.8536092,26.5564598 Z" id="Fill-21" fill="#FFFFFF" mask="url(#mask-4)"></path>
                    <path d="M82.36,24.3822529 L83.2533333,24.3822529 L83.2533333,29.3583448 C83.2533333,29.6594943 83.3563218,29.7450115 83.5544828,29.7450115 C83.6147126,29.7450115 83.7351724,29.7197241 83.811954,29.693977 L83.9926437,30.3891494 C83.777931,30.4843218 83.5112644,30.5270805 83.296092,30.5270805 C82.6694253,30.5270805 82.36,30.2001839 82.36,29.6075402 L82.36,24.3822529 Z" id="Fill-22" fill="#FFFFFF" mask="url(#mask-4)"></path>
                    <path d="M87.4834483,28.4213793 C87.4834483,27.6135632 87.1055172,27.0287356 86.425977,27.0287356 C85.7473563,27.0287356 85.3602299,27.6135632 85.3602299,28.4213793 C85.3602299,29.237931 85.7473563,29.8227586 86.425977,29.8227586 C87.1055172,29.8227586 87.4834483,29.237931 87.4834483,28.4213793 M84.4406897,28.4213793 C84.4406897,27.2094253 85.2314943,26.2990805 86.425977,26.2990805 C87.6121839,26.2990805 88.4029885,27.2094253 88.4029885,28.4213793 C88.4029885,29.6337931 87.6121839,30.5533333 86.425977,30.5533333 C85.2402299,30.5533333 84.4406897,29.6337931 84.4406897,28.4213793" id="Fill-23" fill="#FFFFFF" mask="url(#mask-4)"></path>
                    <path d="M89.2827586,30.4671264 L90.1765517,30.4671264 L90.1765517,26.4018391 L89.2827586,26.4018391 L89.2827586,30.4671264 Z M89.1705747,25.1048276 C89.1705747,24.7944828 89.4022989,24.5544828 89.7291954,24.5544828 C90.056092,24.5544828 90.2873563,24.7862069 90.2873563,25.1048276 C90.2873563,25.4142529 90.0478161,25.6547126 89.7291954,25.6547126 C89.4022989,25.6547126 89.1705747,25.4142529 89.1705747,25.1048276 Z" id="Fill-24" fill="#FFFFFF" mask="url(#mask-4)"></path>
                    <path d="M32.7703448,35.3902529 L22.4402299,35.3902529 C21.0195402,35.3902529 19.8577011,34.2284138 19.8577011,32.8077241 L19.8577011,22.4776092 C19.8577011,21.0569195 21.0195402,19.8950805 22.4402299,19.8950805 L32.7703448,19.8950805 C34.1905747,19.8950805 35.3528736,21.0569195 35.3528736,22.4776092 L35.3528736,32.8077241 C35.3528736,34.2284138 34.1905747,35.3902529 32.7703448,35.3902529" id="Fill-25" fill="#FFFFFF" mask="url(#mask-4)"></path>
                    <path d="M22.4401379,20.8145287 C21.5228966,20.8145287 20.7771494,21.5602759 20.7771494,22.4775172 L20.7771494,32.8076322 C20.7771494,33.7244138 21.5228966,34.4706207 22.4401379,34.4706207 L32.7702529,34.4706207 C33.6870345,34.4706207 34.4332414,33.7244138 34.4332414,32.8076322 L34.4332414,22.4775172 C34.4332414,21.5602759 33.6870345,20.8145287 32.7702529,20.8145287 L22.4401379,20.8145287 Z M32.7702529,36.3097011 L22.4401379,36.3097011 C20.5091034,36.3097011 18.938069,34.7386667 18.938069,32.8076322 L18.938069,22.4775172 C18.938069,20.5464828 20.5091034,18.9754483 22.4401379,18.9754483 L32.7702529,18.9754483 C34.7012874,18.9754483 36.2723218,20.5464828 36.2723218,22.4775172 L36.2723218,32.8076322 C36.2723218,34.7386667 34.7012874,36.3097011 32.7702529,36.3097011 Z" id="Fill-26" fill="#FF810B" mask="url(#mask-4)"></path>
                    <path d="M15.4555862,11.0906667 L12.736046,11.0906667 L12.736046,8.37112644 C12.736046,7.86308046 12.324092,7.45158621 11.8165057,7.45158621 C11.3084598,7.45158621 10.8969655,7.86308046 10.8969655,8.37112644 L10.8969655,11.0906667 L8.17742529,11.0906667 C7.66983908,11.0906667 7.25788506,11.5026207 7.25788506,12.0102069 C7.25788506,12.5177931 7.66983908,12.9297471 8.17742529,12.9297471 L10.8969655,12.9297471 L10.8969655,15.6492874 C10.8969655,16.1573333 11.3084598,16.5688276 11.8165057,16.5688276 C12.324092,16.5688276 12.736046,16.1573333 12.736046,15.6492874 L12.736046,12.9297471 L15.4555862,12.9297471 C15.9631724,12.9297471 16.3751264,12.5177931 16.3751264,12.0102069 C16.3751264,11.5026207 15.9631724,11.0906667 15.4555862,11.0906667" id="Fill-27" fill="#FF810B" mask="url(#mask-4)"></path>
                    <path d="M31.0877701,12.9297471 L23.8096092,12.9297471 C23.302023,12.9297471 22.890069,12.5177931 22.890069,12.0102069 C22.890069,11.5026207 23.302023,11.0906667 23.8096092,11.0906667 L31.0877701,11.0906667 C31.5953563,11.0906667 32.0073103,11.5026207 32.0073103,12.0102069 C32.0073103,12.5177931 31.5953563,12.9297471 31.0877701,12.9297471" id="Fill-28" fill="#FF810B" mask="url(#mask-4)"></path>
                    <path d="M13.1167816,27.6423908 L15.04,25.7191724 C15.3990805,25.3605517 15.3990805,24.7784828 15.04,24.4189425 C14.6809195,24.0598621 14.0983908,24.0598621 13.7393103,24.4189425 L11.8165517,26.3421609 L9.89333333,24.4189425 C9.53471264,24.0598621 8.95172414,24.0598621 8.59310345,24.4189425 C8.23402299,24.7784828 8.23402299,25.3605517 8.59310345,25.7191724 L10.5163218,27.6423908 L8.59310345,29.5656092 C8.23402299,29.9246897 8.23402299,30.5067586 8.59310345,30.8658391 C8.77241379,31.0451494 9.00781609,31.1352644 9.24321839,31.1352644 C9.47862069,31.1352644 9.71402299,31.0451494 9.89333333,30.8658391 L11.8165517,28.9426207 L13.7393103,30.8658391 C13.9190805,31.0451494 14.1544828,31.1352644 14.3898851,31.1352644 C14.6248276,31.1352644 14.8602299,31.0451494 15.04,30.8658391 C15.3990805,30.5067586 15.3990805,29.9246897 15.04,29.5656092 L13.1167816,27.6423908 Z" id="Fill-29" fill="#FF810B" mask="url(#mask-4)"></path>
                    <path d="M31.0877701,26.2630805 L23.8096092,26.2630805 C23.302023,26.2630805 22.890069,25.8511264 22.890069,25.3435402 C22.890069,24.835954 23.302023,24.424 23.8096092,24.424 L31.0877701,24.424 C31.5953563,24.424 32.0073103,24.835954 32.0073103,25.3435402 C32.0073103,25.8511264 31.5953563,26.2630805 31.0877701,26.2630805" id="Fill-30" fill="#FF810B" mask="url(#mask-4)"></path>
                    <path d="M31.0877701,30.8607816 L23.8096092,30.8607816 C23.302023,30.8607816 22.890069,30.4488276 22.890069,29.9412414 C22.890069,29.4336552 23.302023,29.0217011 23.8096092,29.0217011 L31.0877701,29.0217011 C31.5953563,29.0217011 32.0073103,29.4336552 32.0073103,29.9412414 C32.0073103,30.4488276 31.5953563,30.8607816 31.0877701,30.8607816" id="Fill-31" fill="#FF810B" mask="url(#mask-4)"></path>
                </g>
            </g>
        </g>
    </g>
</svg>

<svg xmlns="http://www.w3.org/2000/svg" xmlns:xlink="http://www.w3.org/1999/xlink" width="99" height="40" xmlns:v="https://vecta.io/nano"><defs><path id="A" d="M0 .441h39.098V39.54H0z"/><path id="B" d="M0 39.559h98.485V.46H0z"/></defs><g fill="none" fill-rule="evenodd"><g transform="translate(0 .018)"><mask id="C" fill="#fff"><use xlink:href="#A"/></mask><path d="M39.098 19.991c0 10.797-8.752 19.55-19.549 19.55S0 30.788 0 19.991 8.753.441 19.549.441s19.549 8.753 19.549 19.549" fill="#23333c" mask="url(#C)"/></g><path d="M45.7 5.22h7.099l-.652 2.068h-3.894v2.926h3.894v2.049h-3.894v3.168h4.527V17.5H45.7zm9.297 9.745c.708.466 1.621.764 2.478.764.839 0 1.435-.205 1.435-.764 0-1.342-4.155-.82-4.155-3.764 0-1.621 1.342-2.739 3.465-2.739 1.024 0 1.957.169 2.702.447v2.106c-.783-.336-1.64-.596-2.59-.596-.727 0-1.119.205-1.119.651 0 1.211 4.155.727 4.155 3.839 0 1.994-1.77 2.776-3.689 2.776-1.453 0-2.664-.41-3.447-.894l.764-1.826zm8.832.242v-4.565h-1.622V8.686h1.622V6.618l2.534-.726v2.794h2.664l-.577 1.957h-2.087v3.931c0 .82.261 1.1.838 1.1a2.46 2.46 0 0 0 1.304-.391l.726 1.714c-.652.447-1.808.689-2.683.689-1.676 0-2.72-.931-2.72-2.478" fill="#21313b"/><mask id="D" fill="#fff"><use xlink:href="#B"/></mask><path d="M70.443 17.5h2.515V8.686h-2.515V17.5zm-.261-11.534c0-.801.652-1.453 1.528-1.453.857 0 1.509.615 1.509 1.453 0 .82-.652 1.491-1.509 1.491-.876 0-1.528-.652-1.528-1.491zm4.77 2.72h2.105l.243.95c.857-.652 1.863-1.173 2.926-1.173 1.099 0 1.919.466 2.385 1.305 1.062-.877 2.18-1.305 3.131-1.305 1.583 0 3.018.82 3.018 3.223V17.5h-2.515v-5.143c0-.949-.168-1.714-1.248-1.714-.634 0-1.324.279-1.882.726V17.5h-2.516v-5.106c0-.95-.149-1.751-1.23-1.751-.633 0-1.341.279-1.9.726V17.5h-2.515V8.686zm20.999 3.428c-.019-.875-.466-1.751-1.565-1.751-1.006 0-1.547.839-1.547 1.751h3.112zm-5.608 1.044c0-2.664 1.434-4.696 4.081-4.696 2.571 0 4.062 1.807 4.062 4.77v.577h-5.609c.038 1.229.988 1.92 2.329 1.92a4.32 4.32 0 0 0 2.255-.596l.726 1.714c-.987.596-2.087.838-3.204.838-3.354 0-4.64-2.217-4.64-4.527z" mask="url(#D)" fill="#21313b"/><path fill="#ff810b" mask="url(#D)" d="M45.698 33.721h47.84V22.752h-47.84z"/><path d="M50.988 27.734c.309 0 .541-.052.713-.146.344-.164.507-.499.507-.954 0-.404-.155-.739-.473-.928-.181-.103-.422-.163-.757-.163h-.335v2.192h.344zm-1.246-2.931h1.263c.542 0 .937.077 1.264.249.559.292.885.833.885 1.581 0 .662-.284 1.315-1.04 1.633-.3.129-.679.206-1.185.206h-.284v1.994h-.902v-5.663zm7.101 3.618c0-.808-.378-1.393-1.057-1.393s-1.066.585-1.066 1.393c0 .817.387 1.401 1.066 1.401s1.057-.585 1.057-1.401zm-1.444-3.782h.757l.859 1.263h-.722l-.515-.739-.508.739h-.722l.851-1.263zm-1.598 3.782c0-1.212.791-2.122 1.985-2.122 1.186 0 1.977.91 1.977 2.122s-.791 2.132-1.977 2.132-1.985-.92-1.985-2.132zm4.833-4.039h.893v4.976c0 .301.103.387.301.387a1.03 1.03 0 0 0 .257-.051l.181.695a1.82 1.82 0 0 1-.697.138c-.627 0-.936-.327-.936-.92v-5.225zm4.59 3.636c-.017-.516-.266-1.023-.842-1.023-.542 0-.859.474-.869 1.023h1.711zm-2.613.404c0-1.229.679-2.122 1.779-2.122 1.109 0 1.744.825 1.744 2.14v.215h-2.612c.017.695.472 1.185 1.211 1.185a2.03 2.03 0 0 0 1.023-.275l.266.61c-.395.258-.903.379-1.384.379-1.418 0-2.029-1.006-2.029-2.132zm8.409-.404c-.017-.516-.266-1.023-.842-1.023-.542 0-.859.474-.869 1.023h1.711zm-2.613.404c0-1.229.679-2.122 1.779-2.122 1.109 0 1.744.825 1.744 2.14v.215h-2.612c.017.695.472 1.185 1.211 1.185a2.03 2.03 0 0 0 1.023-.275l.266.61c-.395.258-.903.379-1.384.379-1.418 0-2.029-1.006-2.029-2.132zm4.369-2.02h.747l.095.481c.413-.335.877-.584 1.384-.584.481 0 .868.223 1.066.653.49-.421 1.005-.653 1.478-.653.696 0 1.297.404 1.297 1.461v2.708h-.893V28.01c0-.516-.103-.928-.645-.928-.361 0-.731.206-1.057.473a1.25 1.25 0 0 1 .009.189v2.725h-.893V28.02c0-.516-.104-.937-.636-.937-.37 0-.739.206-1.057.473v2.914h-.893v-4.065zm8.565 3.403c.807 0 1.229-.55 1.229-1.392 0-.937-.516-1.367-1.281-1.367a1.82 1.82 0 0 0-.542.078v2.553c.189.086.361.129.594.129zm-1.487-3.249a4.47 4.47 0 0 1 1.47-.257c1.401 0 2.166.807 2.166 2.122 0 1.273-.851 2.132-2.089 2.132-.232 0-.455-.044-.653-.112v2.063h-.894v-5.948zm4.506-2.174h.893v4.976c0 .301.103.387.301.387.06 0 .181-.025.257-.051l.181.695a1.82 1.82 0 0 1-.697.138c-.627 0-.936-.327-.936-.92v-5.225zm5.123 4.039c0-.808-.378-1.393-1.057-1.393s-1.066.585-1.066 1.393c0 .817.387 1.401 1.066 1.401s1.057-.585 1.057-1.401m-3.043 0c0-1.212.791-2.122 1.985-2.122 1.186 0 1.977.91 1.977 2.122s-.791 2.132-1.977 2.132-1.985-.92-1.985-2.132m4.843 2.046h.894v-4.065h-.894v4.065zm-.112-5.362a.54.54 0 0 1 .559-.55c.327 0 .558.232.558.55 0 .309-.24.55-.558.55a.54.54 0 0 1-.559-.55zM32.77 35.39H22.44a2.59 2.59 0 0 1-2.583-2.583v-10.33a2.59 2.59 0 0 1 2.583-2.583h10.33a2.59 2.59 0 0 1 2.583 2.583v10.33a2.59 2.59 0 0 1-2.583 2.583" mask="url(#D)" fill="#fff"/><g fill="#ff810b"><path d="M22.44 20.815c-.917 0-1.663.746-1.663 1.663v10.33c0 .917.746 1.663 1.663 1.663h10.33c.917 0 1.663-.746 1.663-1.663v-10.33c0-.917-.746-1.663-1.663-1.663H22.44zM32.77 36.31H22.44c-1.931 0-3.502-1.571-3.502-3.502v-10.33c0-1.931 1.571-3.502 3.502-3.502h10.33c1.931 0 3.502 1.571 3.502 3.502v10.33c0 1.931-1.571 3.502-3.502 3.502zM15.456 11.091h-2.72v-2.72a.92.92 0 0 0-1.84 0v2.72h-2.72a.92.92 0 0 0 0 1.84h2.72v2.72a.92.92 0 0 0 1.84 0v-2.72h2.72a.92.92 0 1 0 0-1.84" mask="url(#D)"/><path d="M31.088 12.93H23.81a.92.92 0 1 1 0-1.84h7.278a.92.92 0 1 1 0 1.84M13.117 27.642l1.923-1.923a.92.92 0 0 0 0-1.3.92.92 0 0 0-1.301 0l-1.923 1.923-1.923-1.923a.92.92 0 0 0-1.3 0 .92.92 0 0 0 0 1.3l1.923 1.923-1.923 1.923a.92.92 0 0 0 .65 1.569.92.92 0 0 0 .65-.269l1.923-1.923 1.923 1.923a.92.92 0 0 0 1.301 0 .92.92 0 0 0 0-1.3l-1.923-1.923zm17.971-1.379H23.81a.92.92 0 1 1 0-1.84h7.278a.92.92 0 1 1 0 1.84m0 4.598H23.81a.92.92 0 1 1 0-1.84h7.278a.92.92 0 1 1 0 1.84" mask="url(#D)"/></g></g></svg>
